logos/web3js.svg

<?xml version="1.0" encoding="UTF-8"?>
<svg width="256px" height="240px" viewBox="0 0 256 240" version="1.1" xmlns="http://www.w3.org/2000/svg" xmlns:xlink="http://www.w3.org/1999/xlink" preserveAspectRatio="xMidYMid">
    <title>web3js</title>
    <g>
				<path d="M85.3674598,43.7843098 C85.3674598,43.7843098 75.8802906,49.2616143 75.8802906,60.1991602 C75.8802906,71.1537692 75.8802906,114.869826 75.8802906,114.869826 C75.8802906,114.869826 75.8802906,125.824435 66.3931214,120.347131 C56.9059521,114.869826 56.9059521,103.93228 56.9059521,103.93228 C56.9059521,103.93228 56.9059521,60.1991602 56.9059521,49.2616143 C56.9059521,48.5790842 56.9400787,47.9136173 57.0083317,47.2652136 C58.0491902,37.6415384 66.3760581,32.8297007 66.3760581,32.8297007 L47.4187829,21.8921549 C47.4187829,21.8921549 47.4017197,21.8921549 47.3846564,21.9092182 C46.821569,22.23342 37.9316137,27.7107245 37.9316137,38.3070053 C37.9316137,49.2616143 37.9316137,92.9776711 37.9316137,92.9776711 C37.9316137,92.9776711 37.9316137,103.93228 28.4444444,98.4549757 C18.9572752,92.9776711 18.9572752,82.0401253 18.9572752,82.0401253 C18.9572752,82.0401253 18.9572752,38.3070053 18.9572752,27.3694594 C18.9572752,16.4319136 28.4444444,10.9546091 28.4444444,10.9546091 L9.48716923,-9.69933695e-15 C9.48716923,-9.69933695e-15 3.87973478e-14,5.47730454 3.87973478e-14,16.4148504 C3.87973478e-14,27.3694594 3.87973478e-14,71.0855162 3.87973478e-14,71.0855162 C3.87973478e-14,71.0855162 3.87973478e-14,103.93228 28.4444444,120.347131 C37.1637672,125.380791 43.2041592,125.773245 47.4017197,123.913351 C51.5992801,130.619209 57.6396721,137.205626 66.3589949,142.239285 C94.8034393,158.654136 94.8034393,125.824435 94.8034393,125.824435 C94.8034393,125.824435 94.8034393,82.0913151 94.8034393,71.1537692 C94.8034393,60.1991602 104.290609,54.7389189 104.290609,54.7389189 C101.374381,51.0705179 98.781296,48.5792828 96.511354,47.2652136 C94.5761519,46.1449253 90.8615205,44.984624 85.3674598,43.7843098 Z" fill="#808285"></path>
				<path d="M189.641005,136.813171 C189.641005,104.392988 218.08545,120.39832 218.08545,120.39832 L218.08545,120.39832 L256,142.290475 L256,164.18263 L218.08545,142.290475 C218.08545,142.290475 217.965922,142.221467 217.753698,142.114458 L217.628908,142.052508 C215.73539,141.126763 208.59828,138.268597 208.59828,147.784843 C208.59828,158.722389 218.08545,164.199693 218.08545,164.199693 L218.08545,164.199693 L237.042725,175.137239 C237.042725,175.137239 256,186.091848 256,218.921549 C256,251.75125 227.555556,235.336399 227.555556,235.336399 L227.555556,235.336399 L189.641005,213.444244 L189.641005,191.55209 L227.572619,213.444244 C227.572619,213.444244 237.059788,218.921549 237.059788,207.96694 C237.059788,197.029394 227.572619,191.55209 227.572619,191.55209 L227.572619,191.55209 L218.08545,186.074785 C217.519405,185.736399 189.641005,168.909152 189.641005,136.813171 Z M161.196561,87.5686196 C166.865803,88.2201533 170.709106,89.1287944 172.726468,90.294543 C174.921834,91.563152 177.397623,94.3060472 180.153836,98.5232287 C180.153836,98.5232287 170.666667,104.000533 170.666667,114.938079 L170.666667,114.938079 L170.665899,169.695169 C170.641067,171.534207 169.813333,201.946 142.222222,186.023595 C114.631111,170.10119 113.803378,138.717998 113.778546,136.849337 L113.777778,136.761981 L132.735053,147.71659 L132.735053,147.71659 L132.735416,147.753244 C132.745833,148.447749 133.054845,158.838764 142.222222,164.13144 C151.418968,169.441072 151.700501,159.309428 151.709119,158.684147 L151.709391,103.98347 C151.709391,93.0459241 161.196561,87.5686196 161.196561,87.5686196 Z M113.811904,93.1653669 L132.769179,104.102913 L132.769179,125.995068 L113.811904,115.057522 L113.811904,93.1653669 Z" fill="#BCBEC0"></path>
				<path d="M218.08545,43.7843098 C209.349064,38.7335866 201.51703,36.276478 194.845298,35.2868093 C193.104846,31.4817037 188.839032,27.0111311 180.170899,22.0627874 C151.726455,5.81856962 123.299074,21.8921549 123.299074,21.8921549 L85.3674598,43.7843098 L104.324735,54.7218556 L142.239285,32.8297007 C142.239285,32.8297007 151.726455,27.3523962 161.196561,32.8297007 C170.68373,38.3070053 161.196561,43.7843098 161.196561,43.7843098 L123.28201,65.6764647 L123.28201,65.6764647 L123.28201,65.6764647 L142.239285,76.6140105 L180.187962,54.7047924 C180.75105,54.3805905 189.93108,49.4151836 199.111111,54.7218556 C208.59828,60.1991602 199.111111,65.6594015 199.111111,65.6594015 L161.196561,87.5515564 L180.153836,98.5061654 L227.555556,71.136706 C227.555556,71.136706 246.512831,60.1991602 218.08545,43.7843098 Z" fill="#F16822"></path>
		</g>
</svg>

<svg width="256" height="240" xmlns="http://www.w3.org/2000/svg" preserveAspectRatio="xMidYMid">
	<path d="M85.367 43.784S75.88 49.262 75.88 60.2v54.67s0 10.955-9.487 5.478-9.487-16.415-9.487-16.415v-54.67c0-.683.034-1.348.102-1.997 1.041-9.623 9.368-14.435 9.368-14.435L47.42 21.892s-.017 0-.034.017c-.563.324-9.453 5.802-9.453 16.398v54.67s0 10.955-9.488 5.478c-9.487-5.477-9.487-16.415-9.487-16.415V27.37c0-10.938 9.487-16.415 9.487-16.415L9.487 0S0 5.477 0 16.415v54.67s0 32.847 28.444 49.262c8.72 5.034 14.76 5.426 18.958 3.566 4.197 6.706 10.238 13.293 18.957 18.326 28.444 16.415 28.444-16.415 28.444-16.415v-54.67c0-10.955 9.488-16.415 9.488-16.415-2.917-3.668-5.51-6.16-7.78-7.474-1.935-1.12-5.65-2.28-11.144-3.48Z" fill="#808285"/>
	<path d="M189.641 136.813c0-32.42 28.444-16.415 28.444-16.415L256 142.29v21.893l-37.915-21.893s-.12-.069-.331-.176l-.125-.061c-1.894-.926-9.03-3.784-9.03 5.732 0 10.937 9.486 16.415 9.486 16.415l18.958 10.937S256 186.092 256 218.922s-28.444 16.414-28.444 16.414l-37.915-21.892v-21.892l37.932 21.892s9.487 5.478 9.487-5.477c0-10.938-9.487-16.415-9.487-16.415l-9.488-5.477c-.566-.339-28.444-17.166-28.444-49.262ZM161.197 87.57c5.669.651 9.512 1.56 11.53 2.726 2.195 1.268 4.67 4.011 7.427 8.228 0 0-9.487 5.478-9.487 16.415l-.001 54.757c-.025 1.84-.853 32.251-28.444 16.329-27.59-15.923-28.419-47.306-28.443-49.175l-.001-.087 18.957 10.955v.036c.01.695.32 11.086 9.487 16.378 9.197 5.31 9.479-4.822 9.487-5.447v-54.7c0-10.938 9.488-16.415 9.488-16.415Zm-47.385 5.596 18.957 10.938v21.892l-18.957-10.937V93.165Z" fill="#BCBEC0"/>
	<path d="M218.085 43.784c-8.736-5.05-16.568-7.508-23.24-8.497-1.74-3.805-6.006-8.276-14.674-13.224-28.445-16.244-56.872-.17-56.872-.17L85.367 43.783l18.958 10.938 37.914-21.892s9.487-5.478 18.958 0c9.487 5.477 0 10.954 0 10.954l-37.915 21.892 18.957 10.938 37.949-21.91c.563-.323 9.743-5.289 18.923.018 9.487 5.477 0 10.937 0 10.937l-37.914 21.893 18.957 10.954 47.402-27.37s18.957-10.937-9.47-27.352Z" fill="#F16822"/>
</svg>
